X:13025
T:Persian Dance,The,2nd part. JNu.22
M:2/4
Q:50
S:James Nuttall MS,c1830,Rossendale,East Lancs.
R:Misc.
O:England
A:East Lancashire
Z:Chris Partington
K:G
"secundo"B/A/|GG DD|B,B,B, F/G/|AA/B/ GG/A/|FFF B/A/|!
GG DD|B,DB,D|C2DC|B,B,B,::!
B/A/Ge/d/ cc/B/ |B/A/G/A/ FB/A/|Ge/d/ c/B/A/G/|FFF B/A/|!
Ge/d/ cc/B/|B/A/G/A/ FB/A/|G/B/A/G/ F/A/G/F/|GB,B,::!
G/A/|BGBG|BGBG|GG c/B/A/G/|AF/F/ GA|!
BGBG|BGBG|dB/c/ d/c/B/A/|GDB,:|]
